images/vk.svg

<svg width="30" height="30" viewBox="0 0 30 30" fill="none" xmlns="http://www.w3.org/2000/svg">
<path fill-rule="evenodd" clip-rule="evenodd" d="M10.3403 0C18.6921 0 11.1357 0 19.4875 0C27.8393 0 29.8279 2 29.8279 10.4C29.8279 18.8 29.8279 11.2 29.8279 19.6C29.8279 28 27.8393 30 19.4875 30C11.1357 30 18.6921 30 10.3403 30C1.98852 30 0 28 0 19.6C0 11.2 0 15.0907 0 10.4C0 2 1.98852 0 10.3403 0Z" fill="#5181B8"/>
<path fill-rule="evenodd" clip-rule="evenodd" d="M24.4269 10.3353C24.5651 9.87176 24.4269 9.53117 23.7691 9.53117H21.5942C21.0412 9.53117 20.7862 9.82539 20.648 10.1498C20.648 10.1498 19.5419 12.8613 17.9751 14.6226C17.4682 15.1325 17.2377 15.2947 16.9612 15.2947C16.823 15.2947 16.6228 15.1325 16.6228 14.669V10.3353C16.6228 9.77906 16.4624 9.53117 16.0015 9.53117H12.5837C12.2381 9.53117 12.0303 9.78932 12.0303 10.034C12.0303 10.5613 12.8137 10.6829 12.8944 12.1661V15.3874C12.8944 16.0937 12.7676 16.2217 12.4911 16.2217C11.7538 16.2217 9.96023 13.4981 8.8965 10.3816C8.68804 9.77586 8.47895 9.53117 7.92309 9.53117H5.74815C5.12673 9.53117 5.00244 9.82539 5.00244 10.1498C5.00244 10.7292 5.7398 13.6029 8.43569 17.4036C10.2329 19.9992 12.7651 21.4062 15.0693 21.4062C16.4519 21.4062 16.6229 21.0937 16.6229 20.5554V18.5937C16.6229 17.9687 16.7539 17.8439 17.1916 17.8439C17.5142 17.8439 18.0672 18.0062 19.3576 19.2576C20.8323 20.7408 21.0754 21.4062 21.9049 21.4062H24.0798C24.7013 21.4062 25.012 21.0937 24.8327 20.477C24.6366 19.8623 23.9325 18.9706 22.9983 17.9135C22.4913 17.3109 21.7309 16.662 21.5005 16.3375C21.1779 15.9204 21.2701 15.735 21.5005 15.3642C21.5005 15.3642 24.1504 11.6099 24.4269 10.3353Z" fill="white"/>
</svg>

<svg width="30" height="30" fill="none" xmlns="http://www.w3.org/2000/svg"><path fill-rule="evenodd" clip-rule="evenodd" d="M10.34 0h9.148c8.351 0 10.34 2 10.34 10.4v9.2c0 8.4-1.989 10.4-10.34 10.4H10.34C1.99 30 0 28 0 19.6v-9.2C0 2 1.989 0 10.34 0z" fill="#5181B8"/><path fill-rule="evenodd" clip-rule="evenodd" d="M24.427 10.335c.138-.463 0-.804-.658-.804h-2.175c-.553 0-.808.294-.946.619 0 0-1.106 2.711-2.673 4.473-.507.51-.737.672-1.014.672-.138 0-.338-.162-.338-.626v-4.334c0-.556-.16-.804-.622-.804h-3.417c-.346 0-.554.258-.554.503 0 .527.784.649.864 2.132v3.221c0 .707-.126.835-.403.835-.737 0-2.53-2.724-3.595-5.84-.208-.606-.417-.85-.973-.85H5.748c-.621 0-.746.293-.746.618 0 .58.738 3.453 3.434 7.254 1.797 2.595 4.33 4.002 6.633 4.002 1.383 0 1.554-.312 1.554-.85v-1.962c0-.625.13-.75.569-.75.322 0 .875.162 2.166 1.414 1.474 1.483 1.717 2.148 2.547 2.148h2.175c.621 0 .932-.312.753-.929-.196-.615-.9-1.506-1.835-2.564-.507-.602-1.267-1.251-1.498-1.576-.322-.417-.23-.602 0-.973 0 0 2.65-3.754 2.927-5.029z" fill="#fff"/></svg>
